img/reloj.svg

<?xml version="1.0" encoding="UTF-8" standalone="no"?>
<svg width="206px" height="206px" viewBox="0 0 206 206" version="1.1" xmlns="http://www.w3.org/2000/svg" xmlns:xlink="http://www.w3.org/1999/xlink" xmlns:sketch="http://www.bohemiancoding.com/sketch/ns">
    <!-- Generator: Sketch 3.5.2 (25235) - http://www.bohemiancoding.com/sketch -->
    <title>Slice 1</title>
    <desc>Created with Sketch.</desc>
    <defs></defs>
    <g id="Page-1" stroke="none" stroke-width="1" fill="none" fill-rule="evenodd" sketch:type="MSPage">
        <path d="M144.727287,112.65625 L125.430315,112.65625 L112.565668,112.65625 L102.917182,112.65625 L102.917182,112.65625 C97.5880014,112.65625 93.2686959,108.333469 93.2686959,103 L93.2686959,45.0625 C93.2686959,39.7290312 97.5880014,35.40625 102.917182,35.40625 C108.246362,35.40625 112.565668,39.7290312 112.565668,45.0625 L112.565668,93.34375 L125.430315,93.34375 L144.727287,93.34375 C150.056467,93.34375 154.375773,97.6665312 154.375773,103 C154.375773,108.333469 150.056467,112.65625 144.727287,112.65625 M102.917182,19.3125 C56.7363126,19.3125 19.2969716,56.7819688 19.2969716,103 C19.2969716,149.22125 56.7363126,186.6875 102.917182,186.6875 C149.098051,186.6875 186.537392,149.22125 186.537392,103 C186.537392,56.7819688 149.098051,19.3125 102.917182,19.3125 M102.917182,206 C46.077952,206 0,159.884969 0,103 C0,46.1150313 46.077952,0 102.917182,0 C159.756412,0 205.834363,46.1150313 205.834363,103 C205.834363,159.884969 159.756412,206 102.917182,206" id="Fill-463" fill="#00BD9C" sketch:type="MSShapeGroup"></path>
    </g>
</svg>

<svg width="206" height="206" viewBox="0 0 206 206" xmlns="http://www.w3.org/2000/svg"><title>Slice 1</title><path d="M144.727 112.656h-41.81c-5.329 0-9.648-4.323-9.648-9.656V45.062c0-5.333 4.319-9.656 9.648-9.656 5.33 0 9.649 4.323 9.649 9.657v48.28h32.161c5.33 0 9.649 4.324 9.649 9.657s-4.32 9.656-9.649 9.656m-41.81-93.344c-46.18 0-83.62 37.47-83.62 83.688 0 46.221 37.44 83.688 83.62 83.688 46.181 0 83.62-37.467 83.62-83.688 0-46.218-37.439-83.688-83.62-83.688m0 186.688C46.078 206 0 159.885 0 103S46.078 0 102.917 0c56.84 0 102.917 46.115 102.917 103s-46.078 103-102.917 103" fill="#00BD9C" fill-rule="evenodd"/></svg>
